X: 4
T: Lexie MacAskill
R: reel
M: 4/4
L: 1/8
K: Edor
|:e2 e2 deed|e2dB GABd|e2 e2 deed|egfd e2Bd|
e2 e2 deed|e2dB GABd|e2 e2 deed|egfd e2ef||
|:g2fg e2dB|A3B GABd|g2fg e2dB|egfd e2ef|
g2fg e2dB|A2dB GABd|g2fg e2dB|egfd e2ed||
|:e2 e2 e2dB|A3B GABd|e2 e2 e2dB|egfd e2Bd|
e2 e2 e2dB|A3B GABd|e2 e2 e2dB|egfd e2eg||
|:aeea e2dB|A3B GABd|aeea e2dB|egfd e2g2|
aeea e2dB|A2dB GABd|aeea e2dB|egfd e2e2||


Tune 1093	Setting 14336

